X: 522
T:Sean Walsh's
R:reel
S:Jack &amp; Jimmy Coen's CD
Z:Mike McGann
M:4/4
L:1/8
N:Posted to the woodenflute mailing list May 2002
K:D
D2DF EDBc|D2DE FAA2|Beed e2de|f2ed BddB|
D2DF EDBc|D2DE FAA2|Beed e2dB|AFEF D2DB:|
ABde f2fg|afdf edBA|ABde f2fg|afdf e2dB|
ABde f2fg|afdf edBA|d2dB ABdf|afef d2dB:||
<end>
<start>
